svg/blobs-icons/no-decorations/dates.svg

<svg xmlns="http://www.w3.org/2000/svg" xmlns:xlink="http://www.w3.org/1999/xlink" preserveAspectRatio="xMidYMid" width="217" height="202" viewBox="0 0 217 202"><defs><style>.cls-3{fill:#ff3a2f}.cls-4{fill:#000;opacity:.35}.cls-5{fill:#fff}.cls-6{fill:#fbb713}</style></defs><g id="group-21svg"><path d="M106.821 106.826c-31.996 31.998-74.811 41.06-95.628 20.243C-9.624 106.251-.561 63.437 31.436 31.439 63.432-.56 106.247-9.622 127.064 11.196c20.817 20.817 11.754 63.632-20.243 95.63z" id="path-1" class="cls-3" fill-rule="evenodd"/><path d="M127.064 11.196C106.247-9.622 63.432-.56 31.436 31.439-.561 63.437-9.624 106.251 11.193 127.069c0 0 35.221-3.46600000000001 52.34-53.793.0.0 8.52-55.345 55.104-53.195L127.064 11.196z" id="path-2" class="cls-4" fill-rule="evenodd"/><path d="M21.966 74.385C21.427 74.385 20.877 74.264 20.361 74.006 18.574 73.119 17.845 70.949 18.733 69.161 24.39 57.777 32.145 47.12 41.779 37.483c9.916-9.915 21.359-18.124 33.096-23.74C76.67 12.882 78.834 13.641 79.695 15.443 80.558 17.244 79.795 19.402 77.995 20.264 66.989 25.531 56.234 33.253 46.89 42.595c-8.951 8.953-16.45 19.252-21.683 29.783C24.575 73.649 23.296 74.385 21.966 74.385z" id="path-3" class="cls-5" fill-rule="evenodd"/><path d="M195.288 182.395c-19.488 19.488-45.564 25.008-58.243 12.329C124.367 182.045 129.887 155.968 149.374 136.479c19.488-19.488 45.564-25.008 58.243-12.328C220.295 136.83 214.776 162.906 195.288 182.395z" id="path-4" class="cls-6" fill-rule="evenodd"/><path d="M207.617 124.151c-12.679-12.68-38.755-7.16-58.243 12.328-19.487 19.489-25.007 45.566-12.329 58.245.0.0 21.452-2.11199999999999 31.878-32.764.0.0 5.18899999999999-33.707 33.561-32.398L207.617 124.151z" id="path-5" class="cls-4" fill-rule="evenodd"/><path d="M204.442 37.02C217.099 49.678 220.684 66.615 212.45 74.851 204.215 83.085 187.278 79.501 174.621 66.843 161.963 54.185 158.379 37.248 166.613 29.014 174.848 20.778 191.785 24.363 204.442 37.02z" id="path-6" class="cls-3" fill-rule="evenodd"/><path d="M166.613 29.014C158.379 37.248 161.963 54.185 174.621 66.843c12.657 12.658 29.594 16.242 37.829 8.008.0.0-1.37099999999998-13.934-21.28-20.706.0.0-21.893-3.37-21.042-21.798L166.613 29.014z" id="path-7" class="cls-4" fill-rule="evenodd"/></g></svg>

<svg xmlns="http://www.w3.org/2000/svg" xmlns:xlink="http://www.w3.org/1999/xlink" preserveAspectRatio="xMidYMid" width="217" height="202" viewBox="0 0 217 202">
  <defs>
    <style>

      .cls-3 {
        fill: #ff3a2f;
      }

      .cls-4 {
        fill: #000000;
        opacity: 0.35;
      }

      .cls-5 {
        fill: #ffffff;
      }

      .cls-6 {
        fill: #fbb713;
      }
    </style>
  </defs>
  <g id="group-21svg">
    <path d="M106.821,106.826 C74.825,138.824 32.010,147.886 11.193,127.069 C-9.624,106.251 -0.561,63.437 31.436,31.439 C63.432,-0.560 106.247,-9.622 127.064,11.196 C147.881,32.013 138.818,74.828 106.821,106.826 Z" id="path-1" class="cls-3" fill-rule="evenodd"/>
    <path d="M127.064,11.196 C106.247,-9.622 63.432,-0.560 31.436,31.439 C-0.561,63.437 -9.624,106.251 11.193,127.069 C11.193,127.069 46.414,123.603 63.533,73.276 C63.533,73.276 72.053,17.931 118.637,20.081 C118.637,20.081 127.064,11.196 127.064,11.196 Z" id="path-2" class="cls-4" fill-rule="evenodd"/>
    <path d="M21.966,74.385 C21.427,74.385 20.877,74.264 20.361,74.006 C18.574,73.119 17.845,70.949 18.733,69.161 C24.390,57.777 32.145,47.120 41.779,37.483 C51.695,27.568 63.138,19.359 74.875,13.743 C76.670,12.882 78.834,13.641 79.695,15.443 C80.558,17.244 79.795,19.402 77.995,20.264 C66.989,25.531 56.234,33.253 46.890,42.595 C37.939,51.548 30.440,61.847 25.207,72.378 C24.575,73.649 23.296,74.385 21.966,74.385 Z" id="path-3" class="cls-5" fill-rule="evenodd"/>
    <path d="M195.288,182.395 C175.800,201.883 149.724,207.403 137.045,194.724 C124.367,182.045 129.887,155.968 149.374,136.479 C168.862,116.991 194.938,111.471 207.617,124.151 C220.295,136.830 214.776,162.906 195.288,182.395 Z" id="path-4" class="cls-6" fill-rule="evenodd"/>
    <path d="M207.617,124.151 C194.938,111.471 168.862,116.991 149.374,136.479 C129.887,155.968 124.367,182.045 137.045,194.724 C137.045,194.724 158.497,192.612 168.923,161.960 C168.923,161.960 174.112,128.253 202.484,129.562 C202.484,129.562 207.617,124.151 207.617,124.151 Z" id="path-5" class="cls-4" fill-rule="evenodd"/>
    <path d="M204.442,37.020 C217.099,49.678 220.684,66.615 212.450,74.851 C204.215,83.085 187.278,79.501 174.621,66.843 C161.963,54.185 158.379,37.248 166.613,29.014 C174.848,20.778 191.785,24.363 204.442,37.020 Z" id="path-6" class="cls-3" fill-rule="evenodd"/>
    <path d="M166.613,29.014 C158.379,37.248 161.963,54.185 174.621,66.843 C187.278,79.501 204.215,83.085 212.450,74.851 C212.450,74.851 211.079,60.917 191.170,54.145 C191.170,54.145 169.277,50.775 170.128,32.347 C170.128,32.347 166.613,29.014 166.613,29.014 Z" id="path-7" class="cls-4" fill-rule="evenodd"/>
  </g>
</svg>
